Pods/ProtonCore-UIFoundations/libraries/UIFoundations/Sources/Assets.xcassets/Images/IconSet/ic-filter.imageset/ic-filter.svg

<svg width="24" height="24" viewBox="0 0 24 24" fill="none" xmlns="http://www.w3.org/2000/svg">
<path fill-rule="evenodd" clip-rule="evenodd" d="M10.5042 13.6847V19.0364L13.4956 20.5343V13.6847L21.5651 4.5H2.4349L10.5042 13.6847ZM1.05435 5.20129L9.00423 14.25V19.4994C9.00423 19.7834 9.16451 20.0431 9.41823 20.1702L13.9117 22.4202C14.4097 22.6695 14.9956 22.3069 14.9956 21.7494V14.25L22.9456 5.20131C23.6614 4.31906 23.0345 3 21.8994 3H2.1006C0.965498 3 0.338571 4.31905 1.05435 5.20129Z" fill="#0C0C14"/>
</svg>

<svg xmlns="http://www.w3.org/2000/svg" width="24" height="24" viewBox="0 0 24 24">
  <g class="ic-filter">
    <path fill-rule="evenodd" d="M10.504 13.685v5.351l2.992 1.498v-6.85l8.07-9.184H2.434l8.07 9.185ZM1.054 5.2l7.95 9.049v5.25c0 .283.16.543.414.67l4.494 2.25a.749.749 0 0 0 1.084-.67v-7.5l7.95-9.049c.714-.88.088-2.2-1.047-2.2H2.101C.965 3 .339 4.319 1.054 5.201Z" class="Icon"/>
  </g>
</svg>
